X: 3
T: Reel \`a Gilbert
C: R\'ejean Lizotte
R: Reel
S: Paul Lizotte 2015-7-20 [modified slightly during RJ practices in 2016]
M: C|
L: 1/8
K: A
AF |\
"A"EAcA "(D)"BAFA | "A"EAcA "(D)"BAFA | "A"e2-ef "F#m"ecBA | "Bm"BAcA "E7"{c}BAFA |
"A"EAcA "(D)"BAFA | "A"EAcA "(D)"BAFA | "A"e2-ef "F#m"ecBA |1 "E7"{c}BABc "Q"A2 :|2 "Bm"{c}BABc "E7"B2 :|
|: cd |\
"A"e2-ef eca2 | "D"f2-fa f2"(E7)"{af}ed | "A"cdef "F#m"ecAc | "Bm"BAcA "E7"{c}BAFA |
"A"e2-ef eca2 | "D"f2-fa f2"(E7)"{gf}ed | "A"cdef "F#m"ecAB |1 "Bm"{c}BABc "E7"B2 :|2 "E7"{c}BABc "A"A2 :|
